Catalina-light/actions/22/merge.svg

<svg viewBox="0 0 22 22" xmlns="http://www.w3.org/2000/svg">
<defs>
<style id="current-color-scheme" type="text/css">.ColorScheme-Text {
        color:#363636;
      }</style>
</defs>
<path class="ColorScheme-Text" d="m3 3v4h6 1 1v8h-1-1-6v4h9v-4-2h7v-4h-7v-2-4h-9zm1 1h7v2h-7v-2zm3.5 4c-0.277 0-0.5 0.223-0.5 0.5s0.223 0.5 0.5 0.5 0.5-0.223 0.5-0.5-0.223-0.5-0.5-0.5zm4.5 2h1 1 4v2h-4-1-1v-2zm-4.5 3c-0.277 0-0.5 0.223-0.5 0.5s0.223 0.5 0.5 0.5 0.5-0.223 0.5-0.5-0.223-0.5-0.5-0.5zm-3.5 3h7v2h-7v-2z" fill="#363636"/>
</svg>

<svg xmlns="http://www.w3.org/2000/svg" viewBox="0 0 22 22">
  <defs id="defs3051">
    <style type="text/css" id="current-color-scheme">
      .ColorScheme-Text {
        color:#4d4d4d;
      }
      </style>
  </defs>
 <path 
     style="fill:currentColor;fill-opacity:1;stroke:none" 
     d="M 3 3 L 3 7 L 9 7 L 10 7 L 11 7 L 11 15 L 10 15 L 9 15 L 3 15 L 3 19 L 12 19 L 12 15 L 12 13 L 19 13 L 19 9 L 12 9 L 12 7 L 12 3 L 3 3 z M 4 4 L 11 4 L 11 6 L 4 6 L 4 4 z M 7.5 8 C 7.223 8 7 8.223 7 8.5 C 7 8.777 7.223 9 7.5 9 C 7.777 9 8 8.777 8 8.5 C 8 8.223 7.777 8 7.5 8 z M 12 10 L 13 10 L 14 10 L 18 10 L 18 12 L 14 12 L 13 12 L 12 12 L 12 10 z M 7.5 13 C 7.223 13 7 13.223 7 13.5 C 7 13.777 7.223 14 7.5 14 C 7.777 14 8 13.777 8 13.5 C 8 13.223 7.777 13 7.5 13 z M 4 16 L 11 16 L 11 18 L 4 18 L 4 16 z "
     class="ColorScheme-Text"
     />
</svg>
